src/svg/10_Hair/Straight Long/1/hair_straightLong_brown.svg

<svg width="450" height="378" viewBox="0 0 450 378" fill="none" xmlns="http://www.w3.org/2000/svg">
<path d="M226.078 89.3947C226.078 89.3947 219.53 58.8787 196.426 55.0207C173.321 51.1627 130.179 49.6657 118.931 47.0527C118.931 47.0527 121.768 62.4457 129.041 63.2617C129.041 63.2617 98.9279 67.3347 71.7909 64.2897C71.7909 64.2897 91.6899 101.763 102.631 105.917C102.631 105.917 95.5859 110.377 60.0959 109.037C60.0959 109.037 69.5429 133.425 107.156 149.853L60.3949 152.714C60.3949 152.714 135.864 200 166.319 187.745C166.319 187.745 159.128 183.617 157.255 175.617C155.016 166.05 159.098 155.24 159.098 155.24C159.098 155.24 155.186 138.089 156.107 131.926C157.028 125.763 151.167 114.126 151.167 114.126C151.167 114.126 177.951 69.9777 219.249 82.8967L226.078 89.3947Z" fill="#453823"/>
<path opacity="0.4" d="M71.7919 65.1396C71.7919 65.1396 102.311 107.435 125.559 111.12C125.559 111.12 111.832 120.199 102.587 118.955C102.587 118.955 127.48 138.933 156.019 133.639C156.019 133.639 155.399 150.135 159.1 156.091C159.1 156.091 155.424 169.244 156.234 174.34C157.425 181.829 165.425 188.255 165.425 188.255C165.425 188.255 148.058 193.575 127.701 185.94C107.343 178.305 60.3949 153.565 60.3949 153.565L107.156 150.703C107.156 150.703 72.6499 135.48 60.0959 109.887C60.0959 109.887 98.3709 111.033 102.631 106.768C102.631 106.768 82.9079 90.7406 71.7919 65.1396Z" fill="#32282D"/>
<path opacity="0.6" d="M222.947 85.0517C222.947 85.0517 212.841 64.5657 191.232 59.4937C169.623 54.4207 140.198 59.2127 130.952 55.6747C130.952 55.6747 138.852 63.1747 146.865 64.2487C146.865 64.2487 102.143 74.1797 73.226 67.3487L71.791 64.2897C71.791 64.2897 121.827 66.3697 127.874 62.1467C127.874 62.1467 118.936 57.5297 118.93 47.0527C118.93 47.0527 136.343 52.2817 149.438 50.5797C162.533 48.8777 203.381 49.3097 220.333 74.4177L227.008 87.5357L222.947 85.0517Z" fill="#927A63"/>
<path d="M151.095 191.624C134.135 191.634 119.451 185.457 109.019 181.19C89.611 173.25 58.324 154.296 58.046 153.842C57.694 153.269 57.63 152.566 57.871 151.94C58.112 151.313 58.631 150.835 59.275 150.645C61.687 149.934 95.928 149.967 98.308 148.69C69.729 137.069 58.466 112.911 57.514 109.638C57.298 108.893 57.499 108.088 58.041 107.532C58.582 106.975 59.379 106.75 60.134 106.951C62.972 107.696 93.087 109.657 98.272 106.056C90.633 99.1912 69.991 69.2512 69.159 64.6762C69.033 63.9842 69.252 63.2732 69.747 62.7732C70.243 62.2722 70.953 62.0462 71.644 62.1632C78.615 63.3552 112.548 66.5702 122.924 62.5592C117.26 58.0682 116.317 47.7882 116.271 47.2342C116.208 46.4962 116.53 45.7762 117.122 45.3312C117.713 44.8842 118.494 44.7742 119.186 45.0372C128.931 48.7392 139.142 48.6932 152.072 48.6332C161.329 48.5902 171.818 48.5432 183.998 49.9592C203.18 52.1912 214.676 63.3532 220.942 72.3232C227.688 81.9822 229.911 91.0272 230.003 91.4072C230.281 92.5652 229.567 93.7302 228.409 94.0082C227.247 94.2842 226.085 93.5722 225.807 92.4142C225.763 92.2352 223.606 83.6202 217.318 74.6702C208.948 62.7542 197.569 55.8812 183.499 54.2442C171.577 52.8572 161.222 52.9032 152.092 52.9472C140.661 52.9982 130.615 53.0462 121.146 50.2462C122.038 54.2062 124.165 60.2452 128.837 60.3162C129.716 60.3292 130.562 60.8102 130.905 61.6202C131.385 62.7542 130.841 64.0072 129.761 64.4622C128.598 64.9522 112.098 70.2072 73.935 66.6152C76.357 78.2072 97.854 102.337 102.759 103.856C103.528 104.095 104.1 104.742 104.244 105.535C104.386 106.327 104.075 107.133 103.437 107.625C101.436 109.168 95.66 113.252 62.509 111.201C65.436 124.916 98.349 147.528 106.544 147.694C107.304 147.709 108.05 148.033 108.456 148.676C109.126 149.736 108.779 151.062 107.788 151.682C107.528 151.845 68.138 151.815 63.239 153.807C65.82 157.391 101.841 173.472 111.732 177.833C132.526 187 146.787 190.352 165.17 185.702C166.385 185.391 168.038 189.337 166.931 189.615C161.363 191.013 156.074 191.621 151.095 191.624Z" fill="#3E2670" stroke="#3E2670" stroke-width="0.25" stroke-miterlimit="10"/>
<path d="M226.702 90.936L219.893 83.276C219.893 83.276 201.496 78.758 183.127 86.85C158.787 97.573 151.297 114.254 151.297 114.254C151.297 114.254 156.403 123.105 156.574 129.914C156.719 135.722 154.361 143.02 158.617 154.425C160.84 160.383 147.468 174.638 165.681 187.999" stroke="#3E2670" stroke-width="4" stroke-miterlimit="10"/>
<path opacity="0.6" d="M220.337 81.807C220.337 81.807 186.986 61.756 148.782 72.254C148.782 72.254 165.357 71.217 172.889 73.37C172.889 73.37 152.072 77.593 137.285 84.996C137.285 84.996 158.189 79.075 170.926 79.068C183.662 79.061 195.007 79.418 195.007 79.418C195.007 79.418 188.971 76.443 178.147 75.332C178.147 75.332 184.346 71.207 220.337 81.807Z" fill="#927A63"/>
</svg>

<?xml version="1.0" encoding="utf-8"?>
<!-- Generator: Adobe Illustrator 23.0.1, SVG Export Plug-In . SVG Version: 6.00 Build 0)  -->
<svg version="1.1" id="Hair" xmlns="http://www.w3.org/2000/svg" xmlns:xlink="http://www.w3.org/1999/xlink" x="0px" y="0px"
	 width="450px" height="378px" viewBox="0 0 450 378" enable-background="new 0 0 450 378" xml:space="preserve">
<path fill="#6A604F" d="M226.078,89.395c0,0-6.548-30.516-29.652-34.374c-23.105-3.858-66.247-5.355-77.495-7.968
	c0,0,2.837,15.393,10.11,16.209c0,0-30.113,4.073-57.25,1.028c0,0,19.899,37.473,30.84,41.627c0,0-7.045,4.46-42.535,3.12
	c0,0,9.447,24.388,47.06,40.816l-46.761,2.861c0,0,75.469,47.286,105.924,35.031c0,0-7.191-4.128-9.064-12.128
	c-2.239-9.567,1.843-20.377,1.843-20.377s-3.912-17.151-2.991-23.314c0.921-6.163-4.94-17.8-4.94-17.8s26.784-44.148,68.082-31.229
	L226.078,89.395z"/>
<path opacity="0.4" fill="#3E2670" d="M71.792,65.14c0,0,30.519,42.295,53.767,45.98c0,0-13.727,9.079-22.972,7.835
	c0,0,24.893,19.978,53.432,14.684c0,0-0.62,16.496,3.081,22.452c0,0-3.676,13.153-2.866,18.249
	c1.191,7.489,9.191,13.915,9.191,13.915s-17.367,5.32-37.724-2.315c-20.358-7.635-67.306-32.375-67.306-32.375l46.761-2.862
	c0,0-34.506-15.223-47.06-40.816c0,0,38.275,1.146,42.535-3.119C102.632,106.768,82.908,90.741,71.792,65.14"/>
<path opacity="0.6" fill="#BAAA9B" d="M222.947,85.052c0,0-10.106-20.486-31.715-25.558c-21.609-5.073-51.034-0.281-60.28-3.819
	c0,0,7.9,7.5,15.913,8.574c0,0-44.722,9.931-73.639,3.1l-1.435-3.059c0,0,50.036,2.08,56.083-2.143c0,0-8.938-4.617-8.944-15.094
	c0,0,17.413,5.229,30.508,3.527s53.943-1.27,70.895,23.838l6.675,13.118L222.947,85.052z"/>
<path fill="#3E2670" stroke="#3E2670" stroke-width="0.25" stroke-miterlimit="10" d="M151.095,191.624
	c-16.96,0.01-31.644-6.167-42.076-10.434c-19.408-7.94-50.695-26.894-50.973-27.348c-0.352-0.573-0.416-1.276-0.175-1.902
	c0.241-0.627,0.76-1.105,1.404-1.295c2.412-0.711,36.653-0.678,39.033-1.955c-28.579-11.621-39.842-35.779-40.794-39.052
	c-0.216-0.745-0.015-1.55,0.527-2.106c0.541-0.557,1.338-0.782,2.093-0.581c2.838,0.745,32.953,2.706,38.138-0.895
	c-7.639-6.865-28.281-36.805-29.113-41.38c-0.126-0.692,0.093-1.403,0.588-1.903c0.496-0.501,1.206-0.727,1.897-0.61
	c6.971,1.192,40.904,4.407,51.28,0.396c-5.664-4.491-6.607-14.771-6.653-15.325c-0.063-0.738,0.259-1.458,0.851-1.903
	c0.591-0.447,1.372-0.557,2.064-0.294c9.745,3.702,19.956,3.656,32.886,3.596c9.257-0.043,19.746-0.09,31.926,1.326
	c19.182,2.232,30.678,13.394,36.944,22.364c6.746,9.659,8.969,18.704,9.061,19.084c0.278,1.158-0.436,2.323-1.594,2.601
	c-1.162,0.276-2.324-0.436-2.602-1.594c-0.044-0.179-2.201-8.794-8.489-17.744c-8.37-11.916-19.749-18.789-33.819-20.426
	c-11.922-1.387-22.277-1.341-31.407-1.297c-11.431,0.051-21.477,0.099-30.946-2.701c0.892,3.96,3.019,9.999,7.691,10.07
	c0.879,0.013,1.725,0.494,2.068,1.304c0.48,1.134-0.064,2.387-1.144,2.842c-1.163,0.49-17.663,5.745-55.826,2.153
	c2.422,11.592,23.919,35.722,28.824,37.241c0.769,0.239,1.341,0.886,1.485,1.679c0.142,0.792-0.169,1.598-0.807,2.09
	c-2.001,1.543-7.777,5.627-40.928,3.576c2.927,13.715,35.84,36.327,44.035,36.493c0.76,0.015,1.506,0.339,1.912,0.982
	c0.67,1.06,0.323,2.386-0.668,3.006c-0.26,0.163-39.65,0.133-44.549,2.125c2.581,3.584,38.602,19.665,48.493,24.026
	c20.794,9.167,35.055,12.519,53.438,7.869c1.215-0.311,2.868,3.635,1.761,3.913C161.363,191.013,156.074,191.621,151.095,191.624"/>
<path fill="none" stroke="#3E2670" stroke-width="4" stroke-miterlimit="10" d="M226.702,90.936l-6.809-7.66
	c0,0-18.397-4.518-36.766,3.574c-24.34,10.723-31.83,27.404-31.83,27.404s5.106,8.851,5.277,15.66
	c0.145,5.808-2.213,13.106,2.043,24.511c2.223,5.958-11.149,20.213,7.064,33.574"/>
<path opacity="0.6" fill="#BAAA9B" d="M220.337,81.807c0,0-33.351-20.051-71.555-9.553c0,0,16.575-1.037,24.107,1.116
	c0,0-20.817,4.223-35.604,11.626c0,0,20.904-5.921,33.641-5.928c12.736-0.007,24.081,0.35,24.081,0.35s-6.036-2.975-16.86-4.086
	C178.147,75.332,184.346,71.207,220.337,81.807"/>
</svg>
